X: 2
T: The Blue Jig
C: Joel Mabus 1994
R: jig
M: 6/8
L: 1/8
K: Ador
|: "Am7"A3 cBA | cBA "D"a3 | age ^d=dc | "D7"d^de d=dc |
   "Am7"A3 cBA | cBA "D"a3 | age "D7"cAG | "E7"EDC "Am7"A,3 :|
|: "D7"FAB cBA | FAB cBA | "A7"^cef gfe | ^cef gfe |
   "D7"FAB cBA | FAB cBA | "A7"age "D7"cAG | "E7"EDC "A7"A,3 :||

%%newpage
%%header "Crane's Last Twostep / An Dro		$P"


